X:1
T:River Flows in You
T:River Flows in You Freely arranged by Y.A. Kharitonov 
T:Yiruma
C:Yiruma
%%score ( 1 2 )
L:1/8
Q:1/4=65
M:4/4
K:G
V:1 treble-8 nm="Classical Guitar" snm="Guit."
V:2 treble-8 
V:1
"^Andante"!mp! gfgf gdgc- | c6- cG/B/ | gfgf gdgc- | c6- cG/B/ | %4
 gf/g/- g/G/f/g/- g/G/d/g/- g/G/c/G/ |{/A} BcdB"^II" [FA]3 G/F/ | G2- G/D/G/A/ B3 B/c/ | %7
 d3 c/B/ A4 |({GB)} gf/g/- g/G/f/g/- g/G/d/g/- g/G/c/G/ |{/A} Bcdb"^II" ad({ab)} ag/f/ | %10
 [dg]3 G/A/ BD GB/c/ | dD Bc/B/ A2!p! g/a/g/f/ | g/G/d/G/ g/a/g/f/ g/G/d/G/ g/a/g/f/ | %13
"^III" g/a/b/c'/"^VII" d'/b/a/g/ fA g/a/g/f/ | g/G/d/G/ g/a/g/f/ g/G/d/G/ g/a/g/f/ | %15
"^III" g/a/b/c'/"^VII" d'/b/a/g/ fA g/g/4a/4g/f/ | g/G/d/G/ g/g/4a/4g/f/ g/G/d/G/ g/g/4a/4g/f/ | %17
"^III" g/a/b/c'/"^VII" d'/b/a/g/ fA g/g/4a/4g/f/ | g/G/d/G/ g/g/4a/4g/f/ g/G/d/G/ g/a/g/f/ || %19
[M:5/4]"^III" g/a/b/c'/"^VII" d'/!>(!b/a/g/ fA F !fermata!D2 G/B/!>)! || %20
[M:4/4] gf/g/- g/G/f/g/- g/G/d/g/- g/G/c/G/ |{/A} BcdB"^II" [FA]3 G/F/ | %22
 [DG]2- [DG]/D/G/A/ B/D/G/A/ B/D/B/c/ | d/D/B/c/ d/D/c/B/ A/D/c/B/ AF | %24
{/G} gf/g/- g/G/f/g/- g/G/d/g/- g/G/c/G/ |{/A} Bcdb ad({db)} ag/f/ | [dg]3 G/A/ B/D/G/A/ B/D/B/c/ | %27
 d/D/B/c/ d/D/c/B/ A/D/F/A/ g/a/g/f/ | g/G/d/G/ g/g/4a/4g/f/ g/G/d/G/ g/g/4a/4g/f/ | %29
"^III" g/a/b/c'/"^VII" d'/b/({ab)}a/g/ f/G/d/G/ g/g/4a/4g/f/ | %30
 g/G/d/G/ g/g/4a/4g/f/ g/G/d/G/ g/g/4a/4g/f/ | %31
"^III" g/a/b/c'/"^VII" d'/b/({ab)}a/g/ f/G/d/G/ g/g/4a/4g/f/ | %32
 g/G/d/G/ g/a/g/f/ g/G/d/G/ g/g/4a/4g/f/ |"^III" g/a/b/c'/"^VII" d'/b/a/g/ fA g/g/4a/4g/f/ | %34
 g/G/d/G/ g/g/4a/4g/f/ g/G/d/G/ g/g/4a/4g/f/ |"^III" g/a/b/c'/"^VII" d'/b/a/g/ fAFD | %36
({GB)} gfgf !arpeggio![GBg]dgc | BcdB A2 GF | !arpeggio!G2 DG/A/ BD GB/c/ | dD Bc/B/ A7/2 G/4B/4 | %40
 gfgf !arpeggio![dg]dgc |{/A} Bcdb [Ba]3 G/ z/ | G3 G/A/ BD GB/c/ | dD Gc/B/ A2 D2 | %44
 GG,B,E !fermata![Gg]4 |] %45
V:2
 [E,GB]2 [B,GB]2 [CE]2 [D-G]2 | D8 | [E,GB]2 [B,GB]2 [CE]2 [D-G]2 | D8 | E,2 E2 B,2 D2 | %5
 G,2 [B,G]2 DF, A,2 | E,B, G,2 CG [G,B,D]2 | [G,G]D [G,B,]2 F,A, D2 | E,2 E2 B,2 D2 | %9
 G,2 [B,G]2 F,2 [DG]2 | E,B, [G,D]2 G,2 B,2 | G,2 B,2 [F,A,]2 [DG]2 | E,B,EB, CG, D2 | %13
 G,DB,D A,F, D2 | E,B,DE CA, D2 | G,DB,D A,F, D2 | E,B,EB, CG,B,C | G,DB,D A,F, D2 | %18
 E,B,EB, CG,B,C ||[M:5/4] G,DB,DA,F, z4 ||[M:4/4] E,2 E2 B,2 D2 | G,2 [B,G]2 DF, A,2 | %22
 E, B,3 CG, C2 | G,DB,G, F,A, D2 | E,2 E2 B,2 D2 | G,2 [B,G]2 F,A, D2 | E,B, E2 CG,CC | %27
 G,2 B,G, z A,FD | E,B,DE CB,DE | G,DB,D A,F, D2 | E,B,DE CB,DE | G,DB,D A,F, D2 | E,B,DE CB,DE | %33
 G,DB,D A,F, D2 | E,B,DE CB,DE | G,DB,D A,F, z2 | [E,GB]2 [B,GB]2 !arpeggio![CE]2 [DG]2 | %37
 [G,G]2 [B,G]2 [F,D]2 z2 | !arpeggio![B,D]2 z2 C2 z D | G,2 B,2 DF, A,2 | %40
 [E,GB]2 [B,GB]2 !arpeggio![CEG]2 [DG]2 | G,2 [B,G]2 F,A, D2 | E,B, D2 C2 [G,B,]2 | G,2 B,2 F,4 | %44
 z8 |] %45

